X: 5551
T: Burren, The
R: reel
M: 4/4
K: Dmajor
|:dB|A3 B AFDF|AFAd ~f3 g|afef dB ~B2|dBAF FEDF|
A3 B AFDF|AFAd ~f3 g|afef dB ~B2|A[dg]fe d2:|
|:de|fded BAFA|dcdf ~a3 f|gefd edBc|dBAF FEDF|
A3 B AFDF|AFAd ~f3 g|afef dB ~B2|1 A[dg]fe d2:|2 A2 fe d2||

